static/images/mobile/copyright/wikipedia-tagline-ko.svg

<?xml version="1.0" encoding="UTF-8"?>
<svg width="120px" height="13px" viewBox="0 0 120 13" version="1.1" xmlns="http://www.w3.org/2000/svg" xmlns:xlink="http://www.w3.org/1999/xlink">
    <title>wikipedia-tagline-ko</title>
    <g id="Page-1" stroke="none" stroke-width="1" fill="none" fill-rule="evenodd">
        <path d="M81.4190243,7.88444288 L81.4190243,12.0885025 L80.5128892,12.0885025 L80.5128892,8.77092391 L72.9319773,8.77092391 L72.9319773,7.88444288 L81.4190243,7.88444288 Z M10.8608678,6.4205647 L10.8608678,7.29361843 L5.87073912,7.29361843 L5.87073912,11.9812121 L4.99012864,11.9812121 L4.99012864,7.29361843 L0,7.29361843 L0,6.4205647 L10.8608678,6.4205647 Z M22.4747248,0.000186167067 C22.5938308,0.000186167067 22.6533887,0.0450291592 22.6533997,0.134540612 L22.5640573,0.524060292 L22.5640573,11.9810957 L21.6579211,11.9810957 L21.6579211,0.000186167067 L22.4747248,0.000186167067 Z M52.9870118,6.42049489 L52.9870118,7.29354862 L47.9968831,7.29354862 L47.9968831,11.9811423 L47.1162727,11.9811423 L47.1162727,7.29354862 L42.126144,7.29354862 L42.126144,6.42049489 L52.9870118,6.42049489 Z M64.6263858,0.0001396253 C64.7369831,0.0001396253 64.7922867,0.0404564307 64.7922978,0.121078406 L64.6901969,0.510586451 L64.6901969,11.9810492 L63.7840607,11.9810492 L63.7840607,0.0001396253 L64.6263858,0.0001396253 Z M93.5433715,0.000232708833 C93.6369483,0.000232708833 93.6922564,0.0315320469 93.7092835,0.0942470775 L93.6092621,0.544894653 C93.6078742,0.554031053 93.607181,0.560517456 93.6071826,0.564353827 L93.6071826,5.56088009 L95.7512769,5.56088009 L95.7512769,6.43392219 L93.6071826,6.43392219 L93.6071826,11.9811423 L92.7265721,11.9811423 L92.7265721,0.000232708833 L93.5433715,0.000232708833 Z M106.305811,0.0001396253 C106.399344,0.0001396253 106.454689,0.0314389634 106.471715,0.0941539939 L106.377987,0.509442412 C106.37244,0.538315133 106.36967,0.556588001 106.36967,0.564260743 L106.36967,5.21156086 L108.513766,5.21156086 L108.513766,6.08461459 L106.36967,6.08461459 L106.36967,11.9810492 L105.489059,11.9810492 L105.489059,0.0001396253 L106.305811,0.0001396253 Z M112.495601,8.19345694 C112.563705,8.19345694 112.601959,8.21582026 112.610472,8.26061671 L112.519699,8.67251135 C112.512148,8.7142981 112.508389,8.74265367 112.508426,8.75757806 L112.508426,10.8126065 L120,10.8126065 L120,11.6856486 L111.62776,11.6856486 L111.62776,8.19345694 L112.495601,8.19345694 Z M35.1705949,7.09206931 C35.2811955,7.09206931 35.3364991,7.13686576 35.3365069,7.22638885 L35.234406,7.64276313 L35.234406,9.67087878 L40.2245346,9.67087878 L40.2245346,10.5439209 L29.3636658,10.5439209 L29.3636658,9.67087878 L34.3537944,9.67087878 L34.3537944,7.09202277 L35.1705949,7.09206931 Z M100.626547,1.02098673 C100.643573,1.04786461 100.652086,1.07474248 100.652086,1.10162035 L100.575469,1.78657553 C100.575458,3.32672403 100.715846,4.50421909 100.996631,5.31906071 C101.29441,6.16972785 101.821929,6.98904911 102.579178,7.77703612 L103.298976,8.52490218 C103.380656,8.60763967 103.443194,8.66942414 103.486589,8.71025623 L103.638463,8.83811859 L103.638463,8.83811859 C103.558197,8.96092901 103.39361,9.13964655 103.144625,9.37428585 L102.936482,9.56340221 C102.927637,9.56340221 102.774812,9.42461466 102.477033,9.14702793 C101.728297,8.39486644 101.132718,7.60239978 100.690284,6.76963958 L100.540259,6.47689207 C100.405687,6.20643743 100.24724,5.86973624 100.064921,5.46678427 C99.5969591,6.71145074 98.9035354,7.85759992 97.9846385,8.90525509 L97.5464611,9.36192678 C97.4557064,9.45147055 97.393312,9.50519785 97.3592747,9.52310868 L96.5297202,8.95898756 L96.6637311,8.81459027 L96.6637311,8.81459027 L97.0402467,8.43512507 C97.3635644,8.12172445 97.686882,7.74117569 98.0101996,7.29345553 C98.8440107,6.16520166 99.354504,4.95637236 99.5416908,3.66694435 C99.626821,3.0401431 99.6693197,2.14471442 99.6693197,0.980635023 L100.333014,0.980728107 C100.477647,0.953850236 100.575491,0.96728941 100.626547,1.02098673 Z M63.0310746,7.76355065 L63.0310746,8.66347061 L62.2983353,8.72084031 C61.3998588,8.79656865 59.9164548,8.93334568 57.8481223,9.13118963 L55.8713248,9.3216061 C55.8372949,9.3216061 55.6628698,9.38432113 55.3480641,9.50964647 L55.2516359,9.53353791 C55.2393459,9.53552886 55.2289468,9.53652434 55.2204386,9.53652434 C55.0587797,9.53652434 54.9141381,9.22312372 54.7865148,8.59632248 L54.7694969,8.4828933 C54.7666609,8.46896869 54.7638244,8.45753105 54.7609868,8.44857564 L56.2541993,8.31424446 L56.2541993,8.31424446 L63.0310746,7.76355065 Z M87.4301442,4.36547809 C87.515219,4.36547809 87.5577642,4.40131525 87.5577686,4.47287321 L87.4684372,4.91611373 L87.4811957,8.13961976 L92.0118748,7.73668441 L92.0118748,8.63659274 C90.5569479,8.76419281 89.1355267,8.89431268 87.7476098,9.02694745 L85.057122,9.28382673 C84.9502365,9.29333779 84.8563795,9.3014506 84.7755509,9.30816716 C84.758536,9.30816716 84.6691935,9.3619229 84.5075391,9.4693413 C84.4394682,9.50517846 84.3841668,9.52309704 84.3416271,9.52309704 C84.2820692,9.52309704 84.2225091,9.47830059 84.1629522,9.3887775 L83.9332269,8.39484317 L86.2532546,8.24599132 C86.3757465,8.23696523 86.4872691,8.22838231 86.5878223,8.22024173 L86.5878223,4.36539664 L87.4301442,4.36547809 Z M18.4673043,1.27622178 L18.4673043,5.43999949 L13.9621499,5.43999949 L13.9621499,8.32777648 C15.8254673,8.32777648 17.3782344,8.22480282 18.6204534,8.01884387 L20.0243268,7.77708266 L20.1264277,7.77708266 L20.2030006,8.55611039 C20.2030006,8.60090684 20.1986888,8.63220618 20.1902421,8.65012476 L18.7863698,8.91876384 C17.3909995,9.18739128 15.4808837,9.32169918 13.0560136,9.32169918 L13.0560136,4.55351846 L17.5866971,4.55351846 L17.5866971,2.14927551 L13.0560136,2.14927551 L13.0560136,1.27622178 L18.4673043,1.27622178 Z M119.527782,0.000174531625 C119.629828,0.000174531625 119.680939,0.040491337 119.680939,0.121113312 L119.578893,0.550914892 L119.578893,9.25449287 L118.672755,9.25449287 L118.672755,4.43256804 L116.209597,4.43256804 L116.209597,3.55952595 L118.672755,3.55952595 L118.672755,0.000174531625 L119.527782,0.000174531625 Z M116.694507,1.00759434 L116.694507,1.89407537 L113.925047,1.89407537 C113.925047,3.67002321 114.551147,5.05460719 115.803376,6.04781751 L116.030857,6.21902721 C116.515822,6.57720101 116.856155,6.80553492 117.051855,6.90402893 C116.966725,7.05625542 116.749798,7.28458933 116.400963,7.58904229 L116.337171,7.64279803 C115.086432,6.92645043 114.125003,5.80715585 113.452851,4.28491429 C113.214608,4.89382022 112.661572,5.64598171 111.79372,6.5414104 C111.232171,7.12345009 110.755707,7.52639707 110.36433,7.75025134 L109.936784,7.35402382 C109.813413,7.24209378 109.709187,7.15031051 109.624106,7.07867691 L109.624106,7.05179904 C111.67886,5.85517849 112.791698,4.31996038 112.962623,2.44614472 L112.980633,2.17615338 C112.989478,2.08656048 112.993347,1.99260429 112.993347,1.89409864 L110.160073,1.89409864 L110.160073,1.00759434 L116.694507,1.00759434 Z M81.367975,0.0001396253 C81.4530499,0.0001396253 81.4955994,0.0359767856 81.4955994,0.107534752 L81.4190265,0.537347967 L81.4190265,7.19933644 L80.5128914,7.19933644 L80.5128914,4.48617252 L78.8537691,4.48617252 L78.8537691,7.19933644 L77.9603957,7.19933644 L77.9603957,0.268673983 L78.7899569,0.268673983 C78.9005564,0.268685619 78.9558601,0.313470434 78.9558689,0.402981886 L78.853768,0.792501567 L78.853768,3.61307225 L80.5128903,3.61307225 L80.5128903,8.8817842e-16 L81.367975,0.0001396253 Z M91.1057385,1.27622178 L91.1057385,2.33731589 C91.1057385,4.092371 90.9525806,5.60117363 90.6462889,6.8637354 L89.7656785,6.72941586 C90.054954,5.1534651 90.1995956,3.62674389 90.1996023,2.14927551 L84.6862129,2.14927551 L84.6862129,1.27622178 L91.1057385,1.27622178 Z M72.6639633,0.671807131 C72.7745695,0.671818766 72.8298731,0.716603581 72.8298753,0.806115034 L72.7150138,1.20906201 L72.7150138,2.64620196 L75.714195,2.64620196 L75.714195,0.671772224 L76.5820437,0.671772224 C76.6586166,0.67178386 76.6969064,0.712030852 76.6969064,0.792652828 L76.6203335,1.20902711 L76.6203335,6.4338291 L71.8216404,6.4338291 L71.8216404,0.671714047 L72.6639633,0.671807131 Z M58.8194644,0.819519063 C59.6702904,0.819519063 60.372226,1.11057964 60.9252723,1.69259606 C61.3847141,2.17614175 61.6144461,2.76264946 61.6144461,3.45213082 C61.6144461,4.72365189 61.1337195,5.59669398 60.1722863,6.07128038 C59.7298483,6.28618698 59.2108408,6.39362865 58.6152638,6.39362865 C57.585754,6.39362865 56.8029901,6.03098684 56.2669688,5.30567995 C55.8926007,4.80423896 55.7054194,4.19086501 55.7054194,3.46555812 C55.7054194,2.70444898 56.0202252,2.05526114 56.6498432,1.51799463 C57.0667476,1.15982082 57.5304504,0.944925853 58.0409526,0.873274803 C58.279181,0.837437643 58.5386853,0.819519063 58.8194644,0.819519063 Z M38.7823748,1.22250095 L38.7823748,6.38020135 L30.8185896,6.38020135 L30.8185896,1.22250095 L38.7823748,1.22250095 Z M75.7141972,3.51919751 L72.715016,3.51919751 L72.715016,5.56078701 L75.7141972,5.56078701 L75.7141972,3.51919751 Z M58.4621091,1.69256116 C58.1728281,1.69256116 57.8580201,1.78657553 57.5176908,1.97462753 C56.9306146,2.31489439 56.6370804,2.84768126 56.6370804,3.57297652 C56.6370804,4.27141718 56.9093431,4.80868369 57.4538786,5.18476444 C57.7771907,5.4086187 58.1473023,5.52055165 58.5642144,5.52055165 C59.7383569,5.52055165 60.4232753,5.0235903 60.6189729,4.02964433 C60.6530029,3.85952254 60.6700179,3.67148217 60.6700179,3.46552322 C60.6700179,2.60592006 60.2318331,2.05522624 59.3554825,1.8134534 C59.0832109,1.73281978 58.7854201,1.69256116 58.4621091,1.69256116 Z M37.8762396,2.09554304 L31.7119629,2.09554304 L31.7119629,5.50714762 L37.8762396,5.50714762 L37.8762396,2.09554304 Z M5.36024021,0.403168054 C8.23604244,0.403168054 9.67395792,1.15982082 9.67395792,2.6731031 C9.67395792,3.1387302 9.60163047,3.50586329 9.45699547,3.77449073 C8.97201128,4.7146926 7.51709077,5.18479935 5.09222842,5.18479935 C3.50967682,5.18479935 2.39083462,4.85349178 1.7356974,4.19086501 C1.36132821,3.82374356 1.17414804,3.35811645 1.17414804,2.7939837 C1.17414804,1.41502097 2.24193869,0.631513596 4.37752994,0.443473223 C4.68382376,0.416595353 5.01139348,0.403168054 5.36024021,0.403168054 Z M51.7618144,0.470327823 L51.7618144,1.35680885 L44.4489154,1.35680885 L44.4489154,3.96253111 L51.7618144,3.96253111 L51.7618144,4.84901213 L43.5555421,4.84901213 L43.5555421,0.470327823 L51.7618144,0.470327823 Z M5.89626489,1.28969562 L5.07946553,1.28969562 C3.83724654,1.28969562 2.96939895,1.52252081 2.47592054,1.98813628 C2.22917581,2.22096147 2.10580897,2.50302785 2.10580897,2.83432378 C2.10580897,3.62231079 2.83326591,4.09689719 4.28819194,4.25807132 C4.59448576,4.29390848 4.9092937,4.31182706 5.23261576,4.31182706 C7.57239441,4.31182706 8.742297,3.81038607 8.742297,2.80749245 C8.742297,1.93893 8.0105725,1.44196865 6.54715114,1.31659677 C6.34294384,1.29867819 6.12598249,1.28969562 5.89626489,1.28969562 Z" id="wikipedia-tagline-ko" fill="#000000" fill-rule="nonzero"></path>
    </g>
</svg>

<svg xmlns="http://www.w3.org/2000/svg" width="120" height="13"><path fill="#000" fill-rule="nonzero" d="M81.419 7.884v4.205h-.906V8.77h-7.581v-.887h8.487ZM10.861 6.421v.873H5.87v4.687h-.88V7.294H0V6.42h10.86ZM22.475 0c.119 0 .178.044.178.134l-.089.39V11.98h-.906V.001h.817Zm30.512 6.42v.873h-4.99v4.687h-.88V7.294h-4.99V6.42h10.86ZM64.627 0c.11 0 .165.04.165.12l-.102.39v11.47h-.906V.001h.842Zm28.916 0c.094 0 .15.03.166.093l-.1.45a.15.15 0 0 0-.002.02v4.997h2.144v.873h-2.144v5.547h-.88V.001h.816Zm12.763 0c.093 0 .149.03.166.093l-.094.415a.407.407 0 0 0-.008.055v4.648h2.144v.873h-2.144v5.896h-.88V.001h.816Zm6.19 8.192c.068 0 .106.023.114.068l-.09.412a.58.58 0 0 0-.012.085v2.055H120v.873h-8.372V8.193h.868Zm-77.325-1.1c.11 0 .165.044.166.133l-.103.417V9.67h4.99v.873h-10.86V9.67h4.99V7.092h.817Zm65.456-6.072a.15.15 0 0 1 .025.08l-.077.686c0 1.54.14 2.717.422 3.532.297.85.825 1.67 1.582 2.458l.72.748c.082.083.144.144.188.185l.151.128c-.08.123-.244.302-.493.536l-.209.19c-.008 0-.161-.14-.459-.417-.749-.752-1.344-1.545-1.787-2.377l-.15-.293c-.134-.27-.293-.607-.475-1.01a11.126 11.126 0 0 1-2.08 3.438l-.439.457c-.09.09-.153.143-.187.161l-.83-.564.135-.144.376-.38c.324-.313.647-.694.97-1.142.834-1.128 1.345-2.337 1.532-3.626.085-.627.127-1.522.127-2.686h.664c.145-.027.242-.014.294.04ZM63.03 7.764v.9l-.733.057c-.898.076-2.382.212-4.45.41l-1.977.19c-.034 0-.208.063-.523.189l-.096.024a.2.2 0 0 1-.032.003c-.161 0-.306-.314-.433-.94l-.018-.114a.345.345 0 0 0-.008-.034l1.493-.135 6.777-.55Zm24.4-3.399c.084 0 .127.036.127.108l-.09.443.013 3.224 4.53-.403v.9c-1.454.127-2.875.257-4.263.39l-2.69.257-.282.024c-.017 0-.107.054-.268.161a.383.383 0 0 1-.166.054c-.06 0-.12-.045-.179-.134l-.23-.994 2.32-.149.335-.026V4.365h.842ZM18.466 1.276V5.44h-4.505v2.888c1.863 0 3.416-.103 4.658-.31l1.404-.24h.102l.077.778a.243.243 0 0 1-.013.094l-1.404.269c-1.395.268-3.305.403-5.73.403V4.554h4.53V2.149h-4.53v-.873h5.411ZM119.527 0c.103 0 .154.04.154.121l-.102.43v8.703h-.906V4.433h-2.463V3.56h2.463V0h.855Zm-2.832 1.008v.886h-2.77c0 1.776.626 3.16 1.878 4.154l.228.171c.485.358.825.587 1.02.685-.084.152-.301.38-.65.685l-.064.054c-1.25-.717-2.212-1.836-2.884-3.358-.238.609-.791 1.361-1.66 2.256-.56.582-1.037.985-1.429 1.21l-.427-.397a11.605 11.605 0 0 0-.313-.275v-.027c2.055-1.197 3.168-2.732 3.339-4.606l.018-.27c.008-.09.012-.183.012-.282h-2.833v-.886h6.535ZM81.368 0c.085 0 .128.036.128.108l-.077.43v6.661h-.906V4.486h-1.66V7.2h-.893V.27h.83c.11 0 .166.044.166.134l-.102.39v2.82h1.659V0h.855Zm9.738 1.276v1.061c0 1.755-.153 3.264-.46 4.527l-.88-.135c.289-1.576.434-3.102.434-4.58h-5.514v-.873h6.42ZM72.664.672c.11 0 .166.045.166.134l-.115.403v1.437h3V.672h.867c.077 0 .115.04.115.12l-.077.417v5.225h-4.798V.672h.842ZM58.819.82c.851 0 1.553.29 2.106.873.46.483.69 1.07.69 1.76 0 1.27-.481 2.144-1.443 2.618-.442.215-.961.323-1.557.323-1.03 0-1.812-.363-2.348-1.088-.374-.502-.562-1.115-.562-1.84 0-.762.315-1.41.945-1.948.417-.358.88-.573 1.391-.645.238-.036.498-.053.778-.053Zm-20.037.403V6.38H30.82V1.223h7.963Zm36.932 2.296h-2.999v2.042h3V3.519ZM58.462 1.693c-.29 0-.604.094-.944.282-.587.34-.88.873-.88 1.598 0 .698.271 1.236.816 1.612.323.224.693.336 1.11.336 1.174 0 1.86-.497 2.055-1.491.034-.17.051-.359.051-.564 0-.86-.438-1.41-1.315-1.653-.272-.08-.57-.12-.893-.12Zm-20.586.403h-6.164v3.411h6.164V2.096ZM5.36.403c2.876 0 4.314.757 4.314 2.27 0 .466-.072.833-.217 1.101-.485.94-1.94 1.41-4.365 1.41-1.582 0-2.701-.33-3.356-.993-.375-.367-.562-.833-.562-1.397 0-1.379 1.068-2.162 3.204-2.35.306-.027.633-.04.982-.04ZM51.762.47v.887h-7.313v2.606h7.313v.886h-8.206V.47h8.206Zm-45.866.82H5.08c-1.242 0-2.11.233-2.603.698a1.12 1.12 0 0 0-.37.846c0 .788.727 1.263 2.182 1.424.306.036.621.054.945.054 2.34 0 3.51-.502 3.51-1.505 0-.868-.732-1.365-2.196-1.49a7.46 7.46 0 0 0-.65-.027Z"/></svg>
